X: 2155
Q: "Strathspey."
M: C
L: 1/16
K: D
uF2 |\
uf2 |\
vdd3f3ud vg3veu=c3ue |
vdd3f3ud va3vduf3ud |\
[1 a3df3d {f}g3e=c3e | Dd3 A3F DDD2 D2 :|\
[2 a3df3d gfed =ce3 | db3 a3uf ddd2 d2 |]


